icons/invision-logo.svg

<?xml version="1.0" encoding="UTF-8"?>
<svg width="512px" height="175px" viewBox="0 0 512 175" version="1.1" xmlns="http://www.w3.org/2000/svg" xmlns:xlink="http://www.w3.org/1999/xlink" preserveAspectRatio="xMidYMid">
    <g>
        <path d="M174.742692,0 L174.742692,63.2619214 L183.798745,63.2619214 L200.633804,110.052674 L217.606179,63.2619214 L237.091455,63.2619214 L209.250443,132.723703 L191.756262,132.723703 L174.742692,90.2721665 L174.742692,174.749557 L0,174.749557 L0,0 L174.742692,0 Z M301.80207,61.6690447 C322.612455,61.6690447 329.773534,74.9269967 330.302205,85.1365124 L330.302205,85.1365124 L312.142037,85.1365124 C311.743818,80.7629673 308.427614,76.7807756 301.671619,76.7807756 C295.561015,76.7807756 292.128091,79.6987609 292.128091,83.5436357 C292.128091,95.208711 330.569973,83.5436357 330.569973,112.04377 C330.569973,124.505283 319.962238,134.309714 301.142949,134.309714 C279.398809,134.309714 271.976828,123.180175 271.049938,110.183125 L271.049938,110.183125 L290.136995,110.183125 C290.404763,114.824438 293.851419,119.197983 301.671619,119.197983 C308.825833,119.197983 312.540256,116.678217 312.540256,112.840208 C312.540256,101.175133 273.967924,112.174221 273.967924,84.6009762 C273.967924,72.0090114 284.70611,61.6690447 301.80207,61.6690447 Z M403.608861,61.6690447 C425.881671,61.6690447 440.066513,78.2363354 440.066513,97.9893794 C440.066513,117.742423 425.874806,134.309714 403.608861,134.309714 C381.342917,134.309714 367.158075,117.735558 367.158075,97.9893794 C367.158075,78.2432012 381.342917,61.6690447 403.608861,61.6690447 Z M486.417851,61.6690447 C503.122459,61.6690447 512,72.8054498 512,89.3727404 L512,89.3727404 L512,132.730569 L493.180711,132.730569 L493.180711,91.5011532 C493.180711,83.4200504 489.734056,77.8518479 481.378319,77.8518479 C472.23301,77.8518479 467.200343,83.6740868 467.200343,92.956713 L467.200343,92.956713 L467.200343,132.723703 L448.374189,132.723703 L448.374189,63.2619214 L465.737918,63.2619214 L465.737918,71.7481092 C468.923671,65.7885533 476.077884,61.6690447 486.417851,61.6690447 Z M261.890897,63.2619214 L261.890897,132.723703 L243.064743,132.723703 L243.064743,63.2619214 L261.890897,63.2619214 Z M358.912192,63.2619214 L358.912192,132.723703 L340.086038,132.723703 L340.086038,63.2619214 L358.912192,63.2619214 Z M403.608861,78.2432012 C393.660248,78.2432012 385.98423,85.5278657 385.98423,97.9893794 C385.98423,110.450893 393.67398,117.742423 403.608861,117.742423 C413.571206,117.742423 421.240358,110.444027 421.240358,97.9893794 C421.240358,85.5347315 413.557475,78.2432012 403.608861,78.2432012 Z" fill="#FF0066"></path>
        <path d="M61.186059,55.0091153 C66.7120961,54.9448547 71.1459019,50.4243788 71.1031855,44.8981332 C71.0604691,39.3718875 66.5573131,34.920492 61.0309429,34.9415883 C55.5045728,34.9628351 51.0356551,39.4486027 51.0352815,44.9750134 C51.0443216,47.6537022 52.12042,50.2183648 54.0254667,52.1015144 C55.9305134,53.984664 58.5074447,55.0310422 61.186059,55.0091153 L61.186059,55.0091153 Z" fill="#FFFFFF"></path>
        <path d="M40.0540483,108.762252 C39.4777501,111.238085 39.1762317,113.769919 39.1549598,116.31185 C39.1549598,125.151743 43.9592493,131.019839 54.1374799,131.019839 C62.5861662,131.019839 69.4357105,126.002788 74.3635389,117.897265 L71.3574263,129.983485 L88.1312601,129.983485 L97.7398391,91.5491689 C100.121394,81.7827346 104.767828,76.7039142 111.809544,76.7039142 C117.348204,76.7039142 120.793566,80.1355496 120.793566,85.8389276 C120.819213,87.6646373 120.566962,89.4836244 120.045469,91.2334584 L115.103914,108.961287 C114.398968,111.394461 114.045367,113.915893 114.053834,116.449115 C114.053834,124.842895 118.995389,130.97866 129.331475,130.97866 C138.171367,130.97866 145.213083,125.289008 149.104558,111.658552 L142.515818,109.112279 C139.221448,118.247292 136.338874,119.894477 134.128901,119.894477 C131.918928,119.894477 130.697265,118.398284 130.697265,115.405898 C130.761997,113.832951 131.013118,112.273239 131.445362,110.759464 L136.249651,93.5395174 C137.331403,89.9976757 137.888664,86.3165136 137.9037,82.6131903 C137.9037,69.7308311 130.113887,63.0048257 120.670027,63.0048257 C111.836997,63.0048257 102.825523,70.9799464 98.3506702,79.3668633 L101.651903,64.3088472 L76.0038606,64.3088472 L72.4075067,77.5755496 L84.3976408,77.5755496 L77.0127614,107.12193 C71.2201609,120.00429 60.5409115,120.210188 59.2368901,119.915067 C57.0406434,119.420912 55.6405362,118.583592 55.6405362,115.735335 C55.707505,113.413147 56.0601859,111.108043 56.6906166,108.872064 L67.9257909,64.3019839 L39.463807,64.3019839 L35.8674531,77.5686863 L47.6997319,77.5686863 L40.0540483,108.762252 Z" fill="#FFFFFF"></path>
    </g>
</svg>

<svg xmlns="http://www.w3.org/2000/svg" viewBox="0 0 512 174.75">
  <path fill="#f06" d="M174.743 0v63.262h9.056l16.835 46.79 16.972-46.79h19.485l-27.84 69.462h-17.495l-17.013-42.452v84.478H0V0zm127.06 61.669c20.81 0 27.97 13.258 28.5 23.468h-18.161c-.398-4.374-3.714-8.356-10.47-8.356-6.111 0-9.544 2.918-9.544 6.763 0 11.665 38.442 0 38.442 28.5 0 12.461-10.608 22.266-29.427 22.266-21.744 0-29.166-11.13-30.093-24.127h19.087c.268 4.641 3.714 9.015 11.535 9.015 7.154 0 10.868-2.52 10.868-6.358 0-11.665-38.572-.666-38.572-28.239 0-12.592 10.738-22.932 27.834-22.932zm101.806 0c22.273 0 36.458 16.567 36.458 36.32s-14.192 36.32-36.458 36.32-36.45-16.573-36.45-36.32c0-19.746 14.184-36.32 36.45-36.32zm82.809 0c16.704 0 25.582 11.136 25.582 27.704v43.358h-18.82V91.5c0-8.081-3.446-13.65-11.802-13.65-9.145 0-14.178 5.823-14.178 15.106v39.767h-18.826V63.262h17.364v8.486c3.186-5.96 10.34-10.079 20.68-10.079zM261.89 63.262v69.462h-18.826V63.262zm97.021 0v69.462h-18.826V63.262zm44.697 14.981c-9.949 0-17.625 7.285-17.625 19.746 0 12.462 7.69 19.753 17.625 19.753 9.962 0 17.631-7.298 17.631-19.753 0-12.454-7.683-19.746-17.631-19.746z"/>
  <path fill="#fff" d="M61.186 55.01c5.526-.065 9.96-4.586 9.917-10.112-.043-5.526-4.546-9.978-10.072-9.956-5.526.02-9.995 4.507-9.996 10.033a10.068 10.068 0 0 0 10.151 10.034zM40.054 108.762a34.577 34.577 0 0 0-.899 7.55c0 8.84 4.804 14.708 14.982 14.708 8.45 0 15.299-5.017 20.227-13.123l-3.007 12.086h16.774L97.74 91.55c2.381-9.766 7.028-14.845 14.07-14.845 5.538 0 8.984 3.432 8.984 9.135a18.004 18.004 0 0 1-.749 5.394l-4.941 17.728a26.589 26.589 0 0 0-1.05 7.488c0 8.394 4.941 14.53 15.277 14.53 8.84 0 15.882-5.69 19.774-19.32l-6.59-2.547c-3.294 9.135-6.176 10.782-8.386 10.782-2.21 0-3.432-1.496-3.432-4.488.065-1.573.316-3.133.748-4.647l4.805-17.22a37.933 37.933 0 0 0 1.654-10.926c0-12.882-7.79-19.608-17.234-19.608-8.833 0-17.844 7.975-22.32 16.362l3.302-15.058H76.004l-3.596 13.267h11.99l-7.385 29.546c-5.793 12.882-16.472 13.088-17.776 12.793-2.196-.494-3.596-1.331-3.596-4.18.067-2.322.42-4.627 1.05-6.863l11.235-44.57H39.464l-3.597 13.267H47.7z"/>
</svg>
